X:5067
T:Pembury
O:england
R:jig
C:Composed by Gavin Atkin
S:Copright Gavin Atkin 1996
N:Dedicated to my beautiful daughter, Ella, born on the 26th March 1996.
N:Adored by her family and those who know her.
M:6/8
L:1/8
Q:100
K:D
D|:"D" AFD DFA|"Em"BGE ~E2D|"A"CEA BAB|"Bm"F2 F "D" F2 F|
"D" AFD DFA|"Em" BGE ~E2D|"A" CEA "Bm7" BAF|
"D" D2 D DFG :|: "D" dce "G" d2 B|"D" AFD DFA|"D"dce "G"d2 B|
"D" AFD "A" ~E2 E|"D" dce "G" d2 B|"D" AFD DEF|"G" GBG "D" FAF|
"Em" G~ED "A7" E2 D:|


